public/assets/landing_6_divider.svg

<svg width="800" height="53" viewBox="0 0 800 53" fill="none" xmlns="http://www.w3.org/2000/svg">
<line x1="574" y1="20.5" x2="800" y2="20.5" stroke="#CCCCCC"/>
<line x1="4.37114e-08" y1="20.5" x2="226" y2="20.5" stroke="#CCCCCC"/>
<path d="M291.133 26.5859V28.4141H271.914V26.5859H280.398V22.0156H282.602V26.5859H291.133ZM289.352 13.1797V14.9844H282.625C282.719 17.9258 285.836 20.3633 290.148 21.0078L289.305 22.7422C285.801 22.1914 282.871 20.5273 281.5 18.0781C280.129 20.5273 277.211 22.1914 273.695 22.7422L272.852 21.0078C277.164 20.3633 280.258 17.9258 280.375 14.9844H273.648V13.1797H280.398V10.3672H282.602V13.1797H289.352ZM310.117 9.99219V30.9922H307.867V9.99219H310.117ZM303.859 12.2422C303.859 18.3828 301.234 23.7266 294.039 27.1719L292.867 25.3672C298.457 22.707 301.176 18.9219 301.609 14.0234H293.875V12.2422H303.859ZM326.547 15.3359C326.523 19.0625 328.68 22.8594 331.82 24.3828L330.438 26.1641C328.152 24.9805 326.383 22.625 325.469 19.8125C324.52 22.8125 322.68 25.3203 320.289 26.5625L318.906 24.7578C322.141 23.2109 324.32 19.1797 324.32 15.3359V11.75H326.547V15.3359ZM335.617 9.99219V18.3594H338.992V20.2578H335.617V30.9922H333.391V9.99219H335.617ZM359.148 20.2344V22.0391H340V20.2344H344.594V17.3984C342.977 16.7422 342.062 15.6875 342.062 14.3047C342.062 11.8203 344.945 10.3672 349.562 10.3672C354.156 10.3672 357.062 11.8203 357.062 14.3047C357.062 15.6875 356.137 16.7539 354.508 17.3984V20.2344H359.148ZM349.562 23.4688C354.086 23.4688 356.805 24.8047 356.805 27.1953C356.805 29.6328 354.086 30.9453 349.562 30.9453C344.992 30.9453 342.273 29.6328 342.273 27.1953C342.273 24.8047 344.992 23.4688 349.562 23.4688ZM349.562 25.1797C346.352 25.1797 344.523 25.9062 344.523 27.1953C344.523 28.5078 346.352 29.2578 349.562 29.2344C352.727 29.2578 354.578 28.5078 354.578 27.1953C354.578 25.9062 352.727 25.1797 349.562 25.1797ZM349.562 12.0781C346.305 12.0781 344.336 12.8984 344.359 14.3047C344.336 15.7109 346.305 16.5078 349.562 16.5078C352.82 16.5078 354.766 15.7109 354.766 14.3047C354.766 12.8984 352.82 12.0781 349.562 12.0781ZM346.844 20.2344H352.305V17.9844C351.484 18.125 350.559 18.1953 349.562 18.1953C348.578 18.1953 347.664 18.125 346.844 18.0078V20.2344ZM368.055 16.1797C368.055 19.5078 370.234 23.2109 373.422 24.7109L372.156 26.4453C369.801 25.3086 367.938 22.9414 367 20.1875C366.027 23.1992 364.059 25.7891 361.656 26.9844L360.344 25.2266C363.531 23.7031 365.852 19.7422 365.852 16.1797V13.9531H361.117V12.1016H372.625V13.9531H368.055V16.1797ZM377.102 9.99219V18.3125H380.477V20.1875H377.102V30.9922H374.875V9.99219H377.102ZM397.844 9.99219V18.3594H401.102V20.2109H397.844V30.9688H395.617V9.99219H397.844ZM392.359 12.1953C392.336 18.2656 389.664 23.6797 382.75 27.1016L381.508 25.3672C386.77 22.7422 389.629 18.9453 390.086 14.0469H382.562V12.1953H392.359ZM420.602 18.875V20.7031H416.172V24.5938C418.117 24.5 420.074 24.3711 421.914 24.1719L422.078 25.8125C417.461 26.5156 412.469 26.5625 408.484 26.5859L408.203 24.7344C409.973 24.7344 411.93 24.7227 413.945 24.6641V20.7031H409.727V11.9375H420.508V13.7422H411.93V18.875H420.602ZM425.453 9.99219V31.0391H423.227V9.99219H425.453ZM445.82 12.0078V14.0703C445.82 16.6719 445.82 19.5781 445.023 23.8672L442.773 23.6328C443.594 19.5781 443.594 16.6016 443.594 14.0703V13.8125H430.844V12.0078H445.82ZM447.977 26.3047V28.1562H428.828V26.3047H436.117V18.8984H438.32V26.3047H447.977ZM472.844 10.0156V21.6641H470.617V10.0156H472.844ZM463.07 12.8047C463.047 15.5938 465.086 18.1484 468.297 19.1328L467.219 20.8906C464.746 20.0938 462.906 18.4414 461.945 16.2969C460.996 18.6055 459.121 20.4219 456.602 21.2656L455.5 19.5078C458.781 18.4297 460.797 15.7109 460.797 12.8047V10.7656H463.07V12.8047ZM472.984 22.8125V24.5938H470.219V28.9297H473.195V30.7344H458.57V28.9297H461.57V24.5938H458.758V22.8125H472.984ZM463.773 28.9297H468.016V24.5938H463.773V28.9297ZM492.531 9.99219V18.125H495.906V19.9531H492.531V31.0391H490.305V9.99219H492.531ZM486.883 12.0078V13.8125H479.289V23.9609C482.816 23.9492 485.465 23.7969 488.453 23.2578L488.734 25.1328C485.453 25.7188 482.664 25.8359 478.75 25.8125H477.062V12.0078H486.883ZM507.625 11.7734V13.5547H512.195V10.0156H514.422V25.3203H512.195V19.8828H507.625V21.7109H497.875V11.7734H507.625ZM500.078 13.5781V19.9531H505.445V13.5781H500.078ZM514.891 28.7422V30.5469H500.711V23.9141H502.961V28.7422H514.891ZM507.625 18.0547H512.195V15.3828H507.625V18.0547ZM521.102 23.9609C521.125 20.8906 522.039 19.9531 523.586 18.9922C524.57 18.3828 525.32 17.5391 525.32 16.2969C525.32 14.8203 524.195 13.9062 522.789 13.9062C521.523 13.9062 520.305 14.6797 520.188 16.4141H517.656C517.75 13.4375 520 11.7969 522.789 11.7969C525.836 11.7969 527.875 13.625 527.875 16.2969C527.875 18.1719 526.984 19.4375 525.484 20.3516C524.078 21.1953 523.539 22.0625 523.492 23.9609V24.1016H521.102V23.9609ZM522.391 29.1641C521.477 29.1641 520.703 28.4141 520.727 27.5C520.703 26.5859 521.477 25.8359 522.391 25.8359C523.281 25.8359 524.055 26.5859 524.055 27.5C524.055 28.4141 523.281 29.1641 522.391 29.1641Z" fill="#6B6B6B"/>
</svg>

<svg xmlns="http://www.w3.org/2000/svg" width="800" height="53" fill="none"><path stroke="#CCC" d="M574 20.5h226m-800 0h226"/><path fill="#6B6B6B" d="M291.133 26.586v1.828h-19.219v-1.828h8.484v-4.57h2.204v4.57zm-1.781-13.406v1.804h-6.727c.094 2.942 3.211 5.38 7.523 6.024l-.843 1.734c-3.504-.55-6.434-2.215-7.805-4.664-1.371 2.45-4.289 4.113-7.805 4.664l-.843-1.734c4.312-.645 7.406-3.082 7.523-6.024h-6.727V13.18h6.75v-2.813h2.204v2.813zm20.765-3.188v21h-2.25v-21zm-6.258 2.25c0 6.14-2.625 11.485-9.82 14.93l-1.172-1.805c5.59-2.66 8.309-6.445 8.742-11.344h-7.734v-1.78zm22.688 3.094c-.024 3.726 2.133 7.523 5.273 9.047l-1.382 1.781c-2.286-1.184-4.055-3.539-4.969-6.352-.949 3-2.789 5.508-5.18 6.75l-1.383-1.804c3.235-1.547 5.414-5.578 5.414-9.422V11.75h2.227zm9.07-5.344v8.367h3.375v1.899h-3.375v10.734h-2.226v-21zm23.531 10.242v1.805H340v-1.805h4.594v-2.836c-1.617-.656-2.532-1.71-2.532-3.093 0-2.485 2.883-3.938 7.5-3.938 4.594 0 7.5 1.453 7.5 3.938 0 1.383-.925 2.449-2.554 3.093v2.836zm-9.586 3.235c4.524 0 7.243 1.336 7.243 3.726 0 2.438-2.719 3.75-7.243 3.75-4.57 0-7.289-1.312-7.289-3.75 0-2.39 2.719-3.726 7.289-3.726m0 1.71c-3.21 0-5.039.727-5.039 2.016 0 1.313 1.829 2.063 5.039 2.04 3.165.023 5.016-.727 5.016-2.04 0-1.289-1.851-2.015-5.016-2.015m0-13.1c-3.257 0-5.226.82-5.203 2.226-.023 1.406 1.946 2.203 5.203 2.203s5.204-.797 5.204-2.203c0-1.407-1.946-2.227-5.204-2.227m-2.718 8.155h5.461v-2.25a16.4 16.4 0 0 1-2.743.211c-.984 0-1.898-.07-2.718-.187zm21.211-4.054c0 3.328 2.179 7.03 5.367 8.53l-1.266 1.735c-2.355-1.136-4.218-3.504-5.156-6.257-.973 3.011-2.941 5.601-5.344 6.796l-1.312-1.757c3.187-1.524 5.508-5.485 5.508-9.047v-2.227h-4.735v-1.851h11.508v1.851h-4.57zm9.047-6.188v8.32h3.375v1.875h-3.375v10.805h-2.227v-21zm20.742 0v8.367h3.258v1.852h-3.258v10.758h-2.227V9.992zm-5.485 2.203c-.023 6.07-2.695 11.485-9.609 14.907l-1.242-1.735c5.262-2.625 8.121-6.422 8.578-11.32h-7.524v-1.852zm28.243 6.68v1.828h-4.43v3.89c1.945-.093 3.902-.222 5.742-.421l.164 1.64c-4.617.704-9.609.75-13.594.774l-.281-1.852c1.77 0 3.727-.011 5.742-.07v-3.96h-4.218v-8.766h10.781v1.804h-8.578v5.133zm4.851-8.883V31.04h-2.226V9.992zm20.367 2.016v2.062c0 2.602 0 5.508-.797 9.797l-2.25-.234c.821-4.055.821-7.031.821-9.563v-.258h-12.75v-1.804zm2.157 14.297v1.851h-19.149v-1.851h7.289v-7.407h2.203v7.407zm24.867-16.29v11.65h-2.227v-11.65zm-9.774 2.79c-.023 2.789 2.016 5.343 5.227 6.328l-1.078 1.758c-2.473-.797-4.313-2.45-5.274-4.594-.949 2.308-2.824 4.125-5.343 4.969l-1.102-1.758c3.281-1.078 5.297-3.797 5.297-6.703v-2.04h2.273zm9.914 10.008v1.78h-2.765v4.337h2.976v1.804H458.57V28.93h3v-4.336h-2.812v-1.782zm-9.211 6.117h4.243v-4.336h-4.243zm28.758-18.938v8.133h3.375v1.828h-3.375V31.04h-2.226V9.992zm-5.648 2.016v1.805h-7.594V23.96c3.527-.012 6.176-.164 9.164-.703l.281 1.875c-3.281.586-6.07.703-9.984.68h-1.688V12.008zm20.742-.235v1.782h4.57v-3.54h2.227V25.32h-2.227v-5.437h-4.57v1.828h-9.75v-9.938zm-7.547 1.805v6.375h5.367v-6.375zm14.813 15.164v1.805h-14.18v-6.633h2.25v4.828zm-7.266-10.687h4.57v-2.672h-4.57zm13.477 5.906c.023-3.07.937-4.008 2.484-4.969.984-.61 1.734-1.453 1.734-2.695 0-1.477-1.125-2.39-2.531-2.39-1.266 0-2.484.773-2.601 2.507h-2.532c.094-2.977 2.344-4.617 5.133-4.617 3.047 0 5.086 1.828 5.086 4.5 0 1.875-.891 3.14-2.391 4.055-1.406.843-1.945 1.71-1.992 3.609v.14h-2.39zm1.289 5.203c-.914 0-1.688-.75-1.664-1.664-.024-.914.75-1.664 1.664-1.664.89 0 1.664.75 1.664 1.664s-.774 1.664-1.664 1.664"/></svg>
